icon-svg/bulbs-filament.svg

<svg xmlns="http://www.w3.org/2000/svg" fill="#44739e" viewBox="0 0 24 24"><path d="M19.12 21.3423c.0135.2629.0675.5221.16.7686.1518.4359.0115.92-.35 1.2077l-.43 2.6551a.908.908 0 0 1-.3.5689l-.47.4292-.09.0899-.49.5789a1 1 0 0 1-.78.3593h-.74a1 1 0 0 1-.78-.3593l-.49-.5789-.09-.0899-.47-.4292a.908.908 0 0 1-.3-.5689l-.43-2.685a1.087 1.087 0 0 1-.35-1.2078 2.45 2.45 0 0 0 .16-.7685 30.6 30.6 0 0 0 3.36.1896c.88 0 1.88-.0599 2.88-.1597m4.8801-9.3426a7.975 7.975 0 0 1-1.0601 3.9926l-.11.1696c-.1.1597-.2.3195-.31.4692-1.36 1.9763-2.47 2.4055-3.15 3.6831a28.3 28.3 0 0 1-3.11.1697 29.9 29.9 0 0 1-3.64-.2196c-.68-1.2377-1.78-1.6868-3.12-3.6332-.11-.1497-.21-.3095-.31-.4692l-.11-.1696c-1.6894-2.907-1.3745-6.5587.7877-9.1348s5.7089-3.5252 8.8722-2.3742 5.2661 4.1557 5.2602 7.5164M18 12.5686a1.158 1.158 0 0 0 .84-1.1129 1.158 1.158 0 0 0-.84-1.1129l-3.1-.8485c-.28-.0698-.43-.2195-.43-.3194 0-.0998.15-.2395.41-.3194l3.22-.7985a.48.48 0 0 0 .3098-.2217.478.478 0 0 0 .0502-.3772.51.51 0 0 0-.6-.3693l-3.23.7985c-.6349.1162-1.1115.6452-1.16 1.2876a1.408 1.408 0 0 0 1.16 1.2876l3.08.8584a.16.16 0 0 1 .12.1597.15.15 0 0 1-.12.1498l-3.71.9981a1.128 1.128 0 0 0-.85 1.108 1.148 1.148 0 0 0 .85 1.1179l3.1.7885c.28.0699.43.2196.43.3194s-.15.2396-.41.3194l-3.12.7287a.5023.5023 0 0 0-.445.5539.503.503 0 0 0 .555.4442h.12l3.14-.7286c.6349-.1162 1.1115-.6452 1.16-1.2876-.0517-.6356-.5224-1.1585-1.15-1.2777l-3.09-.8484a.14.14 0 0 1-.12-.1497.1496.1496 0 0 1 .12-.1497z"/></svg>

<?xml version="1.0" encoding="UTF-8"?>
<svg width="32px" height="32px" viewBox="0 0 32 32" version="1.1" fill="#44739e" xmlns="http://www.w3.org/2000/svg" xmlns:xlink="http://www.w3.org/1999/xlink">
            <path d="M19.12,21.3423C19.1335,21.6052 19.1875,21.8644 19.28,22.1109C19.4318,22.5468 19.2915,23.0309 18.93,23.3186L18.5,25.9737C18.4728,26.1935 18.3661,26.3958 18.2,26.5426L17.73,26.9718L17.64,27.0617L17.15,27.6406C16.9574,27.8714 16.6709,28.0034 16.37,27.9999L15.63,27.9999C15.3291,28.0034 15.0426,27.8714 14.85,27.6406L14.36,27.0617L14.27,26.9718L13.8,26.5426C13.6339,26.3958 13.5272,26.1935 13.5,25.9737L13.07,23.2887C12.7085,23.0009 12.5682,22.5169 12.72,22.0809C12.8143,21.835 12.8683,21.5755 12.88,21.3124C13.9957,21.4372 15.1174,21.5005 16.24,21.502C17.12,21.502 18.12,21.4421 19.12,21.3423ZM24.0001,11.9997C24.0036,13.4003 23.638,14.7772 22.94,15.9923L22.83,16.1619C22.73,16.3216 22.63,16.4814 22.52,16.6311C21.16,18.6074 20.05,19.0366 19.37,20.3142C18.3372,20.4278 17.299,20.4844 16.26,20.4839C15.0433,20.4847 13.8277,20.4114 12.62,20.2643C11.94,19.0266 10.84,18.5775 9.5,16.6311C9.39,16.4814 9.29,16.3216 9.19,16.1619L9.08,15.9923C7.3906,13.0853 7.7055,9.4336 9.8677,6.8575C12.0299,4.2814 15.5766,3.3323 18.7399,4.4833C21.9032,5.6343 24.006,8.639 24.0001,11.9997ZM18,12.5686C18.4973,12.4262 18.84,11.9722 18.84,11.4557C18.84,10.9392 18.4973,10.4852 18,10.3428L14.9,9.4943C14.62,9.4245 14.47,9.2748 14.47,9.1749C14.47,9.0751 14.62,8.9354 14.88,8.8555L18.1,8.057C18.2295,8.029 18.3416,7.9487 18.4098,7.8353C18.478,7.7219 18.4961,7.5854 18.46,7.4581C18.3911,7.1947 18.1268,7.0319 17.86,7.0888L14.63,7.8873C13.9951,8.0035 13.5185,8.5325 13.47,9.1749C13.5151,9.8189 13.9933,10.3497 14.63,10.4625L17.71,11.3209C17.7825,11.3396 17.8324,11.4059 17.83,11.4806C17.8315,11.5529 17.781,11.6159 17.71,11.6304L14,12.6285C13.4943,12.7576 13.143,13.2155 13.15,13.7365C13.1455,14.2587 13.4949,14.7181 14,14.8544L17.1,15.6429C17.38,15.7128 17.53,15.8625 17.53,15.9623C17.53,16.0621 17.38,16.2019 17.12,16.2817L14,17.0104C13.7239,17.0407 13.5246,17.2887 13.555,17.5643C13.5854,17.84 13.8339,18.0388 14.11,18.0085L14.23,18.0085L17.37,17.2799C18.0049,17.1637 18.4815,16.6347 18.53,15.9923C18.4783,15.3567 18.0076,14.8338 17.38,14.7146L14.29,13.8662C14.2166,13.8559 14.164,13.7902 14.17,13.7165C14.1685,13.6442 14.219,13.5812 14.29,13.5668L18,12.5686L18,12.5686Z"></path>
</svg>
